icons/lines/directbox-send.svg

<svg xmlns="http://www.w3.org/2000/svg" width="24" height="24" viewBox="0 0 24 24" fill="none" stroke="currentColor" stroke-width="2" stroke-linecap="round" stroke-linejoin="round" >
  <path d="M12 8V2L10 4"/>
  <path d="M12 2L14 4"/>
  <path d="M7 12C3 12 3 13.79 3 16V17C3 19.76 3 22 8 22H16C20 22 21 19.76 21 17V16C21 13.79 21 12 17 12C16 12 15.72 12.21 15.2 12.6L14.18 13.68C13 14.94 11 14.94 9.81 13.68L8.8 12.6C8.28 12.21 8 12 7 12Z" stroke-miterlimit="10"/>
  <path d="M5 12V9.99998C5 7.98998 5 6.32998 8 6.03998" stroke-miterlimit="10"/>
  <path d="M19 12V9.99998C19 7.98998 19 6.32998 16 6.03998" stroke-miterlimit="10"/>
  </svg>

<svg xmlns="http://www.w3.org/2000/svg" width="24" height="24" viewBox="0 0 24 24" fill="none" stroke="currentColor" stroke-width="2" stroke-linecap="round" stroke-linejoin="round">
  <path d="m12 2 2 2" />
  <path d="M12 8V2l-2 2" />
  <path d="M19 12v-2c0-2.01 0-3.67-3-3.96" />
  <path d="M5 12v-2c0-2.01 0-3.67 3-3.96" />
  <path d="M7 12c-4 0-4 1.79-4 4v1c0 2.76 0 5 5 5h8c4 0 5-2.24 5-5v-1c0-2.21 0-4-4-4-1 0-1.28.21-1.8.6l-1.02 1.08a3 3 0 0 1-4.37 0L8.8 12.6C8.28 12.21 8 12 7 12" />
</svg>
